packages/assets/static/images/icons/contrast-eye.svg

<svg width="24" height="24" viewBox="0 0 24 24" xmlns="http://www.w3.org/2000/svg">
<path d="M12.1962 19.197C9.03277 19.197 6.14796 18.0045 3.85331 15.7498C2.12885 14.0549 1.34516 12.366 1.31305 12.2948C1.2306 12.1143 1.22887 11.9078 1.30871 11.7264C1.34169 11.6517 2.12972 9.88648 3.85765 8.1516C6.16619 5.83352 9.0588 4.67925 12.2257 4.81377C16.2344 4.98387 18.8649 6.83331 20.3663 8.35469C21.9927 10.0028 22.6696 11.6109 22.6974 11.6786C22.7668 11.847 22.7677 12.0362 22.6991 12.2054C22.6696 12.2775 21.9649 13.9872 20.3272 15.703C18.1454 17.9889 15.3344 19.197 12.1962 19.197ZM2.72161 11.9997C3.00453 12.517 3.70143 13.6635 4.86178 14.7943C6.91429 16.7947 9.38165 17.8084 12.1962 17.8084C15.0107 17.8084 17.3531 16.7895 19.2884 14.7804C20.3975 13.6287 21.0389 12.4597 21.2897 11.9485C21.0441 11.4651 20.4244 10.3803 19.3387 9.29025C17.4155 7.36097 15.002 6.32126 12.1667 6.20063C9.37731 6.08347 6.92384 7.05722 4.87566 9.09672C3.70664 10.2614 3.00366 11.4643 2.72161 11.9997Z"/>
<path d="M12.0929 16.9223C9.37818 16.9223 7.17032 14.7136 7.17032 11.9989C7.17032 9.28418 9.37905 7.07631 12.0929 7.07631C14.8067 7.07631 17.0154 9.28504 17.0154 11.9989C17.0154 14.7127 14.8067 16.9223 12.0929 16.9223ZM12.0929 8.46491C10.1436 8.46491 8.55891 10.0505 8.55891 11.9989C8.55891 13.9472 10.1445 15.5337 12.0929 15.5337C14.0413 15.5337 15.6269 13.9481 15.6269 11.9989C15.6269 10.0496 14.0413 8.46491 12.0929 8.46491Z"/>
<path d="M12.1701 16.228C9.83468 16.228 7.94185 14.3352 7.94185 11.9997C7.94185 9.66431 9.83468 7.77148 12.1701 7.77148"/>
</svg>

<svg viewBox="0 0 24 24" xmlns="http://www.w3.org/2000/svg" aria-hidden="true" fill="currentColor"><path d="M12.196 19.197c-3.163 0-6.048-1.192-8.343-3.447-1.724-1.695-2.508-3.384-2.54-3.455a.7.7 0 0 1-.004-.569c.033-.074.82-1.84 2.549-3.574 2.308-2.318 5.2-3.473 8.368-3.338 4.008.17 6.639 2.02 8.14 3.54 1.627 1.649 2.304 3.257 2.331 3.325.07.168.07.357.002.526-.03.072-.734 1.782-2.372 3.498-2.182 2.286-4.993 3.494-8.13 3.494M2.722 12c.283.517.98 1.664 2.14 2.794 2.052 2 4.52 3.014 7.334 3.014s5.157-1.018 7.092-3.028a11.6 11.6 0 0 0 2.002-2.831 10.9 10.9 0 0 0-1.951-2.659c-1.923-1.929-4.337-2.969-7.172-3.09-2.79-.117-5.243.857-7.291 2.897A12.4 12.4 0 0 0 2.722 12"/><path d="M12.093 16.922A4.93 4.93 0 0 1 7.17 12a4.93 4.93 0 0 1 4.923-4.923A4.93 4.93 0 0 1 17.015 12a4.93 4.93 0 0 1-4.922 4.923m0-8.457A3.54 3.54 0 0 0 8.559 12a3.54 3.54 0 0 0 3.534 3.535A3.54 3.54 0 0 0 15.627 12a3.54 3.54 0 0 0-3.534-3.534"/><path d="M12.17 16.228a4.228 4.228 0 1 1 0-8.457"/></svg>
